X: 051138
T: Ellen O'Leary's
S: "Johnny O'Leary of Sliabh Luachra" (#99)
Z: B.Black
L: 1/8
M: 6/8
R: jig
K: D
GA|: FDD EFG|Adc A2G|FDD GEE|FDD EDE|
FDD EFG|Adc A2G|FDD GEE|1 EDC D2E :|2\
EDC D2||
g|fed edc|Adc d/c/de|fed edc|ABA A2g|
f2d edc|Adc A2G|FDD GEE|EDC D2 :|
